symbols/web/motion_photos_auto/materialsymbolsrounded/motion_photos_auto_wght200fill1_24px.svg

<svg xmlns="http://www.w3.org/2000/svg" height="24" width="24"><path d="M9.475 15.15q.125 0 .225-.075t.15-.175l.675-1.8h2.95l.65 1.775q.05.1.163.187.112.088.262.088.25 0 .375-.175t.025-.425l-2.375-6.275q-.05-.15-.225-.275-.175-.125-.35-.125T11.65 8q-.175.125-.225.275l-2.35 6.3q-.075.25.038.413.112.162.362.162Zm1.275-2.85 1.2-3.3h.1l1.2 3.3ZM12 21q-1.875 0-3.512-.7-1.638-.7-2.85-1.912-1.213-1.213-1.926-2.851Q3 13.9 3 12.05q0-.675.1-1.35t.275-1.325q.1-.3.325-.4.225-.1.475.075.1.075.163.225.062.15.012.325-.175.575-.262 1.175Q4 11.375 4 12q0 3.35 2.325 5.675Q8.65 20 12 20q3.35 0 5.675-2.325Q20 15.35 20 12q0-3.35-2.325-5.675Q15.35 4 12 4q-.6 0-1.188.087-.587.088-1.112.238-.2.075-.375.025-.175-.05-.275-.2-.125-.2-.038-.425.088-.225.363-.325.475-.2 1.25-.3.775-.1 1.25-.1 1.9 0 3.563.7 1.662.7 2.887 1.925t1.95 2.862Q21 10.125 21 12t-.712 3.512q-.713 1.638-1.925 2.85-1.213 1.213-2.85 1.926Q13.875 21 12 21ZM5.925 6.8q-.35 0-.613-.263-.262-.262-.262-.612t.262-.613q.263-.262.613-.262t.613.262q.262.263.262.613t-.262.612q-.263.263-.613.263ZM12 18q-2.5 0-4.25-1.75T6 12q0-2.5 1.75-4.25T12 6q2.5 0 4.25 1.75T18 12q0 2.5-1.75 4.25T12 18Z"/></svg>

<svg xmlns="http://www.w3.org/2000/svg" height="24" width="24"><path d="M9.475 15.15Q9.6 15.15 9.7 15.075Q9.8 15 9.85 14.9L10.525 13.1H13.475L14.125 14.875Q14.175 14.975 14.288 15.062Q14.4 15.15 14.55 15.15Q14.8 15.15 14.925 14.975Q15.05 14.8 14.95 14.55L12.575 8.275Q12.525 8.125 12.35 8Q12.175 7.875 12 7.875Q11.825 7.875 11.65 8Q11.475 8.125 11.425 8.275L9.075 14.575Q9 14.825 9.113 14.988Q9.225 15.15 9.475 15.15ZM10.75 12.3 11.95 9H12.05L13.25 12.3ZM12 21Q10.125 21 8.488 20.3Q6.85 19.6 5.638 18.388Q4.425 17.175 3.712 15.537Q3 13.9 3 12.05Q3 11.375 3.1 10.7Q3.2 10.025 3.375 9.375Q3.475 9.075 3.7 8.975Q3.925 8.875 4.175 9.05Q4.275 9.125 4.338 9.275Q4.4 9.425 4.35 9.6Q4.175 10.175 4.088 10.775Q4 11.375 4 12Q4 15.35 6.325 17.675Q8.65 20 12 20Q15.35 20 17.675 17.675Q20 15.35 20 12Q20 8.65 17.675 6.325Q15.35 4 12 4Q11.4 4 10.812 4.087Q10.225 4.175 9.7 4.325Q9.5 4.4 9.325 4.35Q9.15 4.3 9.05 4.15Q8.925 3.95 9.012 3.725Q9.1 3.5 9.375 3.4Q9.85 3.2 10.625 3.1Q11.4 3 11.875 3Q13.775 3 15.438 3.7Q17.1 4.4 18.325 5.625Q19.55 6.85 20.275 8.487Q21 10.125 21 12Q21 13.875 20.288 15.512Q19.575 17.15 18.363 18.362Q17.15 19.575 15.513 20.288Q13.875 21 12 21ZM5.925 6.8Q5.575 6.8 5.312 6.537Q5.05 6.275 5.05 5.925Q5.05 5.575 5.312 5.312Q5.575 5.05 5.925 5.05Q6.275 5.05 6.538 5.312Q6.8 5.575 6.8 5.925Q6.8 6.275 6.538 6.537Q6.275 6.8 5.925 6.8ZM12 18Q9.5 18 7.75 16.25Q6 14.5 6 12Q6 9.5 7.75 7.75Q9.5 6 12 6Q14.5 6 16.25 7.75Q18 9.5 18 12Q18 14.5 16.25 16.25Q14.5 18 12 18Z"/></svg>
